src/assets/svgs/squares.svg

<svg width="18" height="19" viewBox="0 0 18 19" fill="none" xmlns="http://www.w3.org/2000/svg">
<path d="M9.60005 15.56C9.24005 15.84 8.73005 15.84 8.37005 15.56L2.22005 10.78C1.86005 10.5 1.36005 10.5 1.00005 10.78C0.490054 11.18 0.490054 11.95 1.00005 12.35L7.76005 17.61C8.48005 18.17 9.49005 18.17 10.2201 17.61L16.9801 12.35C17.4901 11.95 17.4901 11.18 16.9801 10.78L16.9701 10.77C16.6101 10.49 16.1101 10.49 15.7501 10.77L9.60005 15.56V15.56ZM10.2301 12.54L16.9901 7.28C17.5001 6.88 17.5001 6.1 16.9901 5.7L10.2301 0.440004C9.51005 -0.119996 8.50005 -0.119996 7.77005 0.440004L1.01005 5.71C0.500054 6.11 0.500054 6.89 1.01005 7.29L7.77005 12.55C8.49005 13.11 9.51005 13.11 10.2301 12.54V12.54Z" fill="#101636"/>
</svg>

<svg width="18" height="19" fill="none" xmlns="http://www.w3.org/2000/svg"><path d="M9.6 15.56c-.36.28-.87.28-1.23 0l-6.15-4.78a.991.991 0 0 0-1.22 0 .997.997 0 0 0 0 1.57l6.76 5.26c.72.56 1.73.56 2.46 0l6.76-5.26c.51-.4.51-1.17 0-1.57l-.01-.01a.991.991 0 0 0-1.22 0L9.6 15.56Zm.63-3.02 6.76-5.26c.51-.4.51-1.18 0-1.58L10.23.44c-.72-.56-1.73-.56-2.46 0L1.01 5.71c-.51.4-.51 1.18 0 1.58l6.76 5.26c.72.56 1.74.56 2.46-.01Z" fill="#101636"/></svg>
